X: 372
T:Queen of May, The
R:reel
D:Chieftains 1.
D:Paddy Glackin: In Full Spate.
Z:id:hn-reel-138
M:C|
K:Bm
Bcdf e2dB|AD (3FED FA~A2|Bcdf edBc|dBAc BDFA|
~B3A BcdB|AD (3FED FA~A2|Bcdf edBc|dBAc BDFA||
B2eB fBeB|defa afed|B2eB fBeB|dBAc BDFA|
(3Bcd eg fdec|defa afeg|fbba fafe|dBAc BDFA||
<end>
<start>
